small/extra/apps/standard/jokosher.svg

<?xml version="1.0" encoding="UTF-8" standalone="no"?>
<!-- Created with Inkscape (http://www.inkscape.org/) -->
<svg id="svg2" xmlns:rdf="http://www.w3.org/1999/02/22-rdf-syntax-ns#" xmlns="http://www.w3.org/2000/svg" height="100%" width="100%" version="1.1" xmlns:cc="http://creativecommons.org/ns#" xmlns:xlink="http://www.w3.org/1999/xlink" viewBox="0 0 512 512" xmlns:dc="http://purl.org/dc/elements/1.1/">
 <metadata id="metadata72">
  <rdf:RDF>
   <cc:Work rdf:about="">
    <dc:format>image/svg+xml</dc:format>
    <dc:type rdf:resource="http://purl.org/dc/dcmitype/StillImage"/>
   </cc:Work>
  </rdf:RDF>
 </metadata>
 <defs id="defs4">
  <radialGradient id="1" gradientUnits="userSpaceOnUse" cy="260.21" cx="259.83" r="323.39">
   <stop id="stop11" stop-color="#d45500" stop-opacity="0.344" offset="0"/>
   <stop id="stop13" stop-color="#e65c00" offset="1"/>
  </radialGradient>
 </defs>
 <path id="path16" d="m26 0c-14.397 0-26 11.603-26 26v460c0 14.397 11.603 26 26 26h460c14.397 0 26-11.603 26-26v-460c0-14.397-11.6-26-26-26h-460" fill="#f68f1b"/>
 <path id="path18" opacity=".5" d="m91.03 0 158.44 249.88-249.47-160.47v115.72l246.16 55.09-246.16 53.53v115.06l249.5-158.25-155.31 241.44h112.41l53.28-238.06 51.75 238.06h111.69l-153.09-241.44 241.78 155.56v-112.53l-238.41-53.37 238.41-51.84v-111.84l-241.78 153.34 160.75-249.87h-115.94l-55.16 246.53-53.62-246.53h-115.22" fill="url(#1)"/>
 <text id="text20" style="word-spacing:0;letter-spacing:0" font-size="129.23px" line-height="125%" y="67.029999" x="-106.24" font-family="Gentium Book Basic">
  <tspan id="tspan22" y="67.029999" x="-106.24"/>
 </text>
 <text id="text24" style="text-anchor:middle" transform="scale(4.0128 .2492)" font-size="46.954px" y="-80.18" x="170.61" font-family="Arial"/>
 <text id="text26" style="word-spacing:0;letter-spacing:0" font-size="129.23px" line-height="125%" y="-12.973" x="475.03" font-family="Gentium Book Basic">
  <tspan id="tspan28" y="-12.973" x="475.03"/>
 </text>
 <text id="text30" style="text-anchor:middle" transform="scale(4.0128 .2492)" font-size="46.954px" y="-401.22" x="315.45999" font-family="Arial"/>
 <text id="text32" style="word-spacing:0;letter-spacing:0" font-size="129.23px" line-height="125%" y="-194.23" x="-596.54999" font-family="Gentium Book Basic">
  <tspan id="tspan34" y="-194.23" x="-596.54999"/>
 </text>
 <text id="text36" style="text-anchor:middle" transform="scale(4.0128 .2492)" font-size="46.954px" y="-1128.5699" x="48.419998" font-family="Arial"/>
 <text id="text38" style="word-spacing:0;letter-spacing:0" font-size="129.23px" line-height="125%" y="-410.70001" x="501.5" font-family="Gentium Book Basic">
  <tspan id="tspan40" y="-410.70001" x="501.5"/>
 </text>
 <text id="text42" style="text-anchor:middle" transform="scale(4.0128 .2492)" font-size="46.954px" y="-1997.23" x="322.06" font-family="Arial"/>
 <text id="text44" style="word-spacing:0;letter-spacing:0" font-size="129.23px" line-height="125%" y="-490.70001" x="1082.77" font-family="Gentium Book Basic">
  <tspan id="tspan46" y="-490.70001" x="1082.77"/>
 </text>
 <text id="text48" style="text-anchor:middle" transform="scale(4.0128 .2492)" font-size="46.954px" y="-2318.26" x="466.91" font-family="Arial"/>
 <text id="text50" style="word-spacing:0;letter-spacing:0" font-size="129.23px" line-height="125%" y="-963.09998" x="693.65002" font-family="Gentium Book Basic">
  <tspan id="tspan52" y="-963.09998" x="693.65002"/>
 </text>
 <text id="text54" style="text-anchor:middle" transform="scale(4.0128 .2492)" font-size="46.954px" y="-4213.8999" x="369.94" font-family="Arial"/>
 <text id="text56" style="word-spacing:0;letter-spacing:0" font-size="129.23px" line-height="125%" y="-1043.11" x="1274.91" font-family="Gentium Book Basic">
  <tspan id="tspan58" y="-1043.11" x="1274.91"/>
 </text>
 <text id="text60" style="text-anchor:middle" transform="scale(4.0128 .2492)" font-size="46.954px" y="-4534.9399" x="514.78998" font-family="Arial"/>
 <text id="text62" style="word-spacing:0;letter-spacing:0" font-size="208.33px" line-height="125%" y="371.60999" x="-557.89001" font-family="Gentium Book Basic">
  <tspan id="tspan64" y="371.60999" x="-557.89001"/>
 </text>
 <path id="path66" opacity=".25" d="m216.94 41-90.12 20.19v284c0 16.13-2.824 28.439-8.469 36.906s-15.513 12.688-29.625 12.688c-7.66 0-13.911-0.382-18.75-1.188-5.237-0.806-10.89-2.234-16.938-4.25l-12.09 73.19 49.47 49.47h395.59c14.397 0 26-11.603 26-26v-151.28l-295.06-293.72"/>
 <path id="path68" d="m97.18 471c-5.645 0-13.909-0.604-24.795-1.815-11.289-1.209-21.772-3.427-31.448-6.652l12.1-73.18c6.05 2.02 11.695 3.427 16.933 4.233 4.839 0.806 11.09 1.209 18.748 1.209 14.11 0 23.989-4.233 29.634-12.7s8.467-20.764 8.467-36.897v-284.02l90.11-20.18v306.62c0 41.931-10.279 72.976-30.837 93.13-20.558 20.16-50.2 30.24-88.9 30.24" fill="#fff"/>
</svg>

<?xml version="1.0" encoding="UTF-8" standalone="no"?>
<!-- Created with Inkscape (http://www.inkscape.org/) -->

<svg
   xmlns:dc="http://purl.org/dc/elements/1.1/"
   xmlns:cc="http://creativecommons.org/ns#"
   xmlns:rdf="http://www.w3.org/1999/02/22-rdf-syntax-ns#"
   xmlns:svg="http://www.w3.org/2000/svg"
   xmlns="http://www.w3.org/2000/svg"
   xmlns:xlink="http://www.w3.org/1999/xlink"
   xmlns:inkscape="http://www.inkscape.org/namespaces/inkscape"
   version="1.1"
   width="100%"
   height="100%"
   viewBox="0 0 512 512"
   id="svg2">
  <metadata
     id="metadata72">
    <rdf:RDF>
      <cc:Work
         rdf:about="">
        <dc:format>image/svg+xml</dc:format>
        <dc:type
           rdf:resource="http://purl.org/dc/dcmitype/StillImage" />
      </cc:Work>
    </rdf:RDF>
  </metadata>
  <defs
     id="defs4">
    <radialGradient
       cx="256"
       cy="256"
       r="226.38"
       id="0"
       gradientUnits="userSpaceOnUse">
      <stop
         id="stop11"
         style="stop-color:#d45500;stop-opacity:0.34400001"
         offset="0" />
      <stop
         id="stop13"
         style="stop-color:#e65c00;stop-opacity:1"
         offset="1" />
    </radialGradient>
    <radialGradient
       cx="259.82999"
       cy="260.20999"
       r="323.39001"
       id="1"
       xlink:href="#0"
       gradientUnits="userSpaceOnUse" />
  </defs>
  <path
     d="M 26,0 C 11.603,0 0,11.603 0,26 v 460 c 0,14.397 11.603,26 26,26 h 460 c 14.397,0 26,-11.603 26,-26 V 26 C 512,11.603 500.397,0 486,0 H 26"
     inkscape:connector-curvature="0"
     id="path16"
     style="fill:#f68f1b" />
  <path
     d="M 91.03,0 249.47,249.88 0,89.41 V 205.13 L 246.16,260.22 0,313.75 V 428.81 L 249.5,270.56 94.19,512 H 206.6 L 259.88,273.94 311.63,512 H 423.32 L 270.23,270.56 512.01,426.12 V 313.59 L 273.6,260.22 512.01,208.376 V 96.536 L 270.23,249.876 430.98,0.006 H 315.04 L 259.88,246.536 206.255,0.006 H 91.035"
     inkscape:connector-curvature="0"
     id="path18"
     style="opacity:0.5;fill:url(#1)" />
  <text
     x="-106.24"
     y="67.029999"
     id="text20"
     style="font-size:129.22999573px;line-height:125%;letter-spacing:0;word-spacing:0;font-family:Gentium Book Basic">
    <tspan
       x="-106.24"
       y="67.029999"
       id="tspan22" />
  </text>
  <text
     x="170.61"
     y="-80.18"
     transform="scale(4.0128,0.2492)"
     id="text24"
     style="font-size:46.95399857px;text-anchor:middle;font-family:Arial" />
  <text
     x="475.03"
     y="-12.973"
     id="text26"
     style="font-size:129.22999573px;line-height:125%;letter-spacing:0;word-spacing:0;font-family:Gentium Book Basic">
    <tspan
       x="475.03"
       y="-12.973"
       id="tspan28" />
  </text>
  <text
     x="315.45999"
     y="-401.22"
     transform="scale(4.0128,0.2492)"
     id="text30"
     style="font-size:46.95399857px;text-anchor:middle;font-family:Arial" />
  <text
     x="-596.54999"
     y="-194.23"
     id="text32"
     style="font-size:129.22999573px;line-height:125%;letter-spacing:0;word-spacing:0;font-family:Gentium Book Basic">
    <tspan
       x="-596.54999"
       y="-194.23"
       id="tspan34" />
  </text>
  <text
     x="48.419998"
     y="-1128.5699"
     transform="scale(4.0128,0.2492)"
     id="text36"
     style="font-size:46.95399857px;text-anchor:middle;font-family:Arial" />
  <text
     x="501.5"
     y="-410.70001"
     id="text38"
     style="font-size:129.22999573px;line-height:125%;letter-spacing:0;word-spacing:0;font-family:Gentium Book Basic">
    <tspan
       x="501.5"
       y="-410.70001"
       id="tspan40" />
  </text>
  <text
     x="322.06"
     y="-1997.23"
     transform="scale(4.0128,0.2492)"
     id="text42"
     style="font-size:46.95399857px;text-anchor:middle;font-family:Arial" />
  <text
     x="1082.77"
     y="-490.70001"
     id="text44"
     style="font-size:129.22999573px;line-height:125%;letter-spacing:0;word-spacing:0;font-family:Gentium Book Basic">
    <tspan
       x="1082.77"
       y="-490.70001"
       id="tspan46" />
  </text>
  <text
     x="466.91"
     y="-2318.26"
     transform="scale(4.0128,0.2492)"
     id="text48"
     style="font-size:46.95399857px;text-anchor:middle;font-family:Arial" />
  <text
     x="693.65002"
     y="-963.09998"
     id="text50"
     style="font-size:129.22999573px;line-height:125%;letter-spacing:0;word-spacing:0;font-family:Gentium Book Basic">
    <tspan
       x="693.65002"
       y="-963.09998"
       id="tspan52" />
  </text>
  <text
     x="369.94"
     y="-4213.8999"
     transform="scale(4.0128,0.2492)"
     id="text54"
     style="font-size:46.95399857px;text-anchor:middle;font-family:Arial" />
  <text
     x="1274.91"
     y="-1043.11"
     id="text56"
     style="font-size:129.22999573px;line-height:125%;letter-spacing:0;word-spacing:0;font-family:Gentium Book Basic">
    <tspan
       x="1274.91"
       y="-1043.11"
       id="tspan58" />
  </text>
  <text
     x="514.78998"
     y="-4534.9399"
     transform="scale(4.0128,0.2492)"
     id="text60"
     style="font-size:46.95399857px;text-anchor:middle;font-family:Arial" />
  <text
     x="-557.89001"
     y="371.60999"
     id="text62"
     style="font-size:208.33000183px;line-height:125%;letter-spacing:0;word-spacing:0;font-family:Gentium Book Basic">
    <tspan
       x="-557.89001"
       y="371.60999"
       id="tspan64" />
  </text>
  <path
     d="m 216.94,41 -90.12,20.19 v 284 c 0,16.13 -2.824,28.439 -8.469,36.906 -5.645,8.467 -15.513,12.688 -29.625,12.688 -7.66,0 -13.911,-0.382 -18.75,-1.188 -5.237,-0.806 -10.89,-2.234 -16.938,-4.25 l -12.09,73.19 49.47,49.47 h 395.59 c 14.397,0 26,-11.603 26,-26 V 334.726 L 216.948,41.006"
     inkscape:connector-curvature="0"
     id="path66"
     style="opacity:0.25" />
  <path
     d="m 97.18,471 c -5.645,0 -13.909,-0.604 -24.795,-1.815 -11.289,-1.209 -21.772,-3.427 -31.448,-6.652 l 12.1,-73.18 c 6.05,2.02 11.695,3.427 16.933,4.233 4.839,0.806 11.09,1.209 18.748,1.209 14.11,0 23.989,-4.233 29.634,-12.7 5.645,-8.467 8.467,-20.764 8.467,-36.897 V 61.178 l 90.11,-20.18 v 306.62 c 0,41.931 -10.279,72.976 -30.837,93.13 -20.558,20.16 -50.2,30.24 -88.9,30.24"
     inkscape:connector-curvature="0"
     id="path68"
     style="fill:#ffffff" />
</svg>
